X: 13
T: Leoncello
N: Drone: F/C
K: G dorian
M: 4/4
L: 1/8
M: 4/4
P: A (5x)
"^Quadernaria"c2cB A2A2 | ABcd c2"^      (5)"c2 :: c2 \
P: B
cd f2f2 | d2d2 c2c/d/e/c/ | c2B2 A4 :: 
P: C
A3/B/c3/d/ cded | \
c2B2 A4 :| \
M: 6/4
P: D
"^Bassadanza"c2d2e2 f4ed | d2c2B2 G4G2 | FGABcd f4f2 | e2d2c2 c3def | g4d2 e2d2c2 | c3Bcd c4A2 || \
P: E
A6 A3Bcd | c6 c3dcd | e2f2g2 f2e2dc | A2G2F2 A4F2 | G2A2B2 B3ABA | GFEFGA G2GFEF | \
F4F2 F6 || \
M: 4/4P: F
"^Quadernaria"C6z2 | C6z2 |] 

